; generated by GCodeToolbox 0.011
; created: 2013/02/12 17:48:16 CET (1360687696)
; command: concatObjects(pla-cube-190-030.gcode,pla-cube-190-040.gcode,pla-cube-190-050.gcode,pla-cube-190-060.gcode,pla-cube-190-070.gcode,pla-cube-190-080.gcode,pla-cube-190-090.gcode,pla-cube-190-100.gcode,pla-cube-195-030.gcode,pla-cube-195-040.gcode,pla-cube-195-050.gcode,pla-cube-195-060.gcode,pla-cube-195-070.gcode,pla-cube-195-080.gcode,pla-cube-195-090.gcode,pla-cube-195-100.gcode,pla-cube-200-030.gcode,pla-cube-200-040.gcode,pla-cube-200-050.gcode,pla-cube-200-060.gcode,pla-cube-200-070.gcode,pla-cube-200-080.gcode,pla-cube-200-090.gcode,pla-cube-200-100.gcode,pla-cube-205-030.gcode,pla-cube-205-040.gcode,pla-cube-205-050.gcode,pla-cube-205-060.gcode,pla-cube-205-070.gcode,pla-cube-205-080.gcode,pla-cube-205-090.gcode,pla-cube-205-100.gcode,pla-cube-210-030.gcode,pla-cube-210-040.gcode,pla-cube-210-050.gcode,pla-cube-210-060.gcode,pla-cube-210-070.gcode,pla-cube-210-080.gcode,pla-cube-210-090.gcode,pla-cube-210-100.gcode,pla-cube-215-030.gcode,pla-cube-215-040.gcode,pla-cube-215-050.gcode,pla-cube-215-060.gcode,pla-cube-215-070.gcode,pla-cube-215-080.gcode,pla-cube-215-090.gcode,pla-cube-215-100.gcode,pla-cube-220-030.gcode,pla-cube-220-040.gcode,pla-cube-220-050.gcode,pla-cube-220-060.gcode,pla-cube-220-070.gcode,pla-cube-220-080.gcode,pla-cube-220-090.gcode,pla-cube-220-100.gcode,pla-cube-225-030.gcode,pla-cube-225-040.gcode,pla-cube-225-050.gcode,pla-cube-225-060.gcode,pla-cube-225-070.gcode,pla-cube-225-080.gcode,pla-cube-225-090.gcode,pla-cube-225-100.gcode)
;    cols: 8
;    objectSpacing: 3
;    objectSpacingX: 4
;    objectSpacingY: 4
;    printerHeadX: 16
;    printerHeadY: 16
;    printerHeadZ: 50
;    printerMargin: 3
;    printerX: 200
;    printerY: 200
;    printerZ: 200
;    render.height: 800
;    render.view: top
;    render.width: 800
;    sequence: complete
;    slicer: slic3r
; header-start; for all objects (might be redundent, but we ensure it starts properly)
G28 ; homing
G90 ; use absolute coordinates
G21 ; set units to millimeters
G92 E0
M82 ; use absolute distances for extrusion
; header-end
G1 X3 ; move away from printed object
G1 Y3 ; to next origin of next object
; start of pla-cube-190-030.gcode (#1 of 64)
M109 S190 ; wait for temperature to be reached
G90 ; use absolute coordinates
G21 ; set units to millimeters
G92 E0
M82 ; use absolute distances for extrusion
G1 F1800.000 E-1.00000
G92 E0
G1 Z0.400 F7800.000
G1 X20.37 Y20.21
G1 F1800.000 E1.00000
G1 X20.04 Y20.52 F540.000 E1.01885
G1 X19.69 Y20.8 E1.03751
G1 X19.31 Y21.04 E1.05622
G1 X18.91 Y21.25 E1.07502
G1 X18.49 Y21.42 E1.09388
G1 X17.84 Y21.59 E1.12185
G1 X17.61 Y21.63 E1.13157
G1 X16.94 Y21.68 E1.15954
G1 X7.74000000000001 Y21.68 E1.54251
G1 X7.07000000000001 Y21.63 E1.57048
G1 X6.62 Y21.54 E1.58958
G1 X6.19 Y21.42 E1.60817
G1 X5.77000000000001 Y21.25 E1.62703
G1 X5.37 Y21.04 E1.64583
G1 X4.99000000000001 Y20.8 E1.66454
G1 X4.47 Y20.37 E1.69263
G1 X4.16 Y20.04 E1.71148
G1 X3.88000000000001 Y19.69 E1.73014
G1 X3.64 Y19.31 E1.74885
G1 X3.43000000000001 Y18.91 E1.76765
G1 X3.26000000000001 Y18.49 E1.78651
G1 X3.09 Y17.84 E1.81448
G1 X3.05 Y17.61 E1.82420
G1 X3 Y16.94 E1.85217
G1 X3 Y7.74000000000001 E2.23514
G1 X3.05 Y7.07000000000001 E2.26311
G1 X3.14 Y6.62 E2.28221
G1 X3.26000000000001 Y6.19 E2.30080
G1 X3.43000000000001 Y5.77000000000001 E2.31966
G1 X3.64 Y5.37 E2.33846
G1 X3.88000000000001 Y4.99000000000001 E2.35717
G1 X4.16 Y4.64 E2.37583
G1 X4.47 Y4.31 E2.39468
G1 X4.99000000000001 Y3.88000000000001 E2.42277
G1 X5.37 Y3.64 E2.44148
G1 X5.77000000000001 Y3.43000000000001 E2.46028
G1 X6.19 Y3.26000000000001 E2.47915
G1 X6.84 Y3.09 E2.50711
G1 X7.07000000000001 Y3.05 E2.51683
G1 X7.74000000000001 Y3 E2.54480
G1 X16.94 Y3 E2.92777
G1 X17.61 Y3.05 E2.95574
G1 X18.06 Y3.14 E2.97484
G1 X18.49 Y3.26000000000001 E2.99343
G1 X18.91 Y3.43000000000001 E3.01229
G1 X19.31 Y3.64 E3.03110
G1 X19.69 Y3.88000000000001 E3.04980
G1 X20.21 Y4.31 E3.07789
G1 X20.52 Y4.64 E3.09674
G1 X20.8 Y4.99000000000001 E3.11540
G1 X21.04 Y5.37 E3.13411
G1 X21.25 Y5.77000000000001 E3.15291
G1 X21.42 Y6.19 E3.17178
G1 X21.59 Y6.84 E3.19974
G1 X21.63 Y7.07000000000001 E3.20946
G1 X21.68 Y7.74000000000001 E3.23743
G1 X21.68 Y16.94 E3.62040
G1 X21.63 Y17.61 E3.64837
G1 X21.54 Y18.06 E3.66747
G1 X21.42 Y18.49 E3.68606
G1 X21.25 Y18.91 E3.70492
G1 X21.04 Y19.31 E3.72373
G1 X20.8 Y19.69 E3.74244
G1 X20.443 Y20.127 E3.76593
G1 X20.37 Y20.21 E3.77053
G1 F1800.000 E2.77053
G92 E0
G1 X9.211 Y15.469 F7800.000
G1 F1800.000 E1.00000
G1 X9.211 Y9.211 F540.000 E1.26049
G1 X15.469 Y9.211 E1.52097
G1 X15.469 Y15.469 E1.78146
G1 X9.322 Y15.469 E2.03735
G1 X9.211 Y15.469 E2.04194
G1 X8.476 Y16.204 F7800.000
G1 X8.476 Y8.476 F540.000 E2.36367
G1 X16.204 Y8.476 E2.68540
G1 X16.204 Y16.204 E3.00713
G1 X8.586 Y16.204 E3.32427
G1 X8.476 Y16.204 E3.32886
G1 X7.74000000000001 Y16.94 F7800.000
G1 X7.74000000000001 Y7.74000000000001 F540.000 E3.71183
G1 X16.94 Y7.74000000000001 E4.09481
G1 X16.94 Y16.94 E4.47778
G1 X7.85000000000001 Y16.94 E4.85616
G1 X7.74000000000001 Y16.94 E4.86075
G1 X8.108 Y16.303 F7800.000
G1 F1800.000 E3.86075
G92 E0
G1 X10.181 Y14.967 F7800.000
G1 F1800.000 E1.00000
G1 X9.71300000000001 Y14.499 F1080.000 E1.02819
G1 X9.71300000000001 Y13.435 E1.07346
G1 X11.245 Y14.967 E1.16566
G1 X12.308 Y14.967 E1.21093
G1 X9.71300000000001 Y12.372 E1.36715
G1 X9.71300000000001 Y11.308 E1.41242
G1 X13.372 Y14.967 E1.63266
G1 X14.435 Y14.967 E1.67793
G1 X9.71300000000001 Y10.244 E1.96219
G1 X10.244 Y9.71300000000001 E1.99420
G1 X14.967 Y14.436 E2.27846
G1 X14.967 Y13.372 E2.32373
G1 X11.308 Y9.71300000000001 E2.54397
G1 X12.372 Y9.71300000000001 E2.58924
G1 X14.967 Y12.308 E2.74546
G1 X14.967 Y11.245 E2.79073
G1 X13.435 Y9.71300000000001 E2.88294
G1 X14.499 Y9.71300000000001 E2.92821
G1 X14.967 Y10.181 E2.95639
M106 S255
G1 F1800.000 E1.95639
G92 E0
G1 Z0.800 F7800.000
G1 X8.64200000000001 Y16.038
G1 F1800.000 E1.00000
G1 X8.64200000000001 Y8.64200000000001 F600.000 E1.21750
G1 X16.038 Y8.64200000000001 E1.43499
G1 X16.038 Y16.038 E1.65249
G1 X8.72 Y16.038 E1.86769
G1 X8.64200000000001 Y16.038 E1.86998
G1 X8.122 Y16.558 F7800.000
G1 X8.122 Y8.122 F600.000 E2.11804
G1 X16.558 Y8.122 E2.36609
G1 X16.558 Y16.558 E2.61415
G1 X8.2 Y16.558 E2.85991
G1 X8.122 Y16.558 E2.86220
G1 X7.60300000000001 Y17.077 F7800.000
G1 X7.60300000000001 Y7.60300000000001 F600.000 E3.14082
G1 X17.077 Y7.60300000000001 E3.41943
G1 X17.077 Y17.077 E3.69805
G1 X7.68000000000001 Y17.077 E3.97437
G1 X7.60300000000001 Y17.077 E3.97666
G1 X7.86200000000001 Y16.627 F7800.000
G1 F1800.000 E2.97666
G92 E0
G1 X9.327 Y8.99600000000001 F7800.000
G1 F1800.000 E1.00000
G1 X8.99600000000001 Y9.327 F1198.122 E1.01400
G1 X8.99600000000001 Y10.075 E1.03639
G1 X10.075 Y8.99600000000001 E1.08204
G1 X10.823 Y8.99600000000001 E1.10443
G1 X8.99600000000001 Y10.823 E1.18174
G1 X8.99600000000001 Y11.571 E1.20412
G1 X11.571 Y8.99600000000001 E1.31309
G1 X12.318 Y8.99600000000001 E1.33547
G1 X8.99600000000001 Y12.318 E1.47609
G1 X8.99600000000001 Y13.066 E1.49847
G1 X13.066 Y8.99600000000001 E1.67074
G1 X13.814 Y8.99600000000001 E1.69312
G1 X8.99600000000001 Y13.814 E1.89705
G1 X8.99600000000001 Y14.562 E1.91943
G1 X14.562 Y8.99600000000001 E2.15501
G1 X15.31 Y8.99600000000001 E2.17739
G1 X8.99600000000001 Y15.31 E2.44463
G1 X9.37 Y15.684 E2.46045
G1 X15.684 Y9.37 E2.72769
G1 X15.684 Y10.118 E2.75007
G1 X10.118 Y15.684 E2.98566
G1 X10.866 Y15.684 E3.00804
G1 X15.684 Y10.866 E3.21197
G1 X15.684 Y11.614 E3.23435
G1 X11.614 Y15.684 E3.40663
G1 X12.362 Y15.684 E3.42901
G1 X15.684 Y12.362 E3.56963
G1 X15.684 Y13.109 E3.59201
G1 X13.109 Y15.684 E3.70097
G1 X13.857 Y15.684 E3.72336
G1 X15.684 Y13.857 E3.80067
G1 X15.684 Y14.605 E3.82305
G1 X14.605 Y15.684 E3.86871
G1 X15.353 Y15.684 E3.89109
G1 X15.684 Y15.353 E3.90509
G1 F1800.000 E2.90509
G92 E0
G1 Z1.200 F7800.000
G1 X16.038 Y16.038
G1 F1800.000 E1.00000
G1 X8.64200000000001 Y16.038 F600.000 E1.21750
G1 X8.64200000000001 Y8.64200000000001 E1.43499
G1 X16.038 Y8.64200000000001 E1.65249
G1 X16.038 Y15.96 E1.86769
G1 X16.038 Y16.038 E1.86998
G1 X16.558 Y16.558 F7800.000
G1 X8.122 Y16.558 F600.000 E2.11804
G1 X8.122 Y8.122 E2.36609
G1 X16.558 Y8.122 E2.61415
G1 X16.558 Y16.48 E2.85991
G1 X16.558 Y16.558 E2.86220
G1 X17.077 Y17.077 F7800.000
G1 X7.60300000000001 Y17.077 F600.000 E3.14082
G1 X7.60300000000001 Y7.60300000000001 E3.41943
G1 X17.077 Y7.60300000000001 E3.69805
G1 X17.077 Y17 E3.97437
G1 X17.077 Y17.077 E3.97666
G1 X16.627 Y16.818 F7800.000
G1 F1800.000 E2.97666
G92 E0
G1 X9.327 Y15.684 F7800.000
G1 F1800.000 E1.00000
G1 X8.99600000000001 Y15.353 F1198.122 E1.01400
G1 X8.99600000000001 Y14.605 E1.03639
G1 X10.075 Y15.684 E1.08204
G1 X10.823 Y15.684 E1.10443
G1 X8.99600000000001 Y13.857 E1.18174
G1 X8.99600000000001 Y13.109 E1.20412
G1 X11.571 Y15.684 E1.31309
G1 X12.318 Y15.684 E1.33547
G1 X8.99600000000001 Y12.362 E1.47609
G1 X8.99600000000001 Y11.614 E1.49847
G1 X13.066 Y15.684 E1.67074
G1 X13.814 Y15.684 E1.69313
G1 X8.99600000000001 Y10.866 E1.89706
G1 X8.99600000000001 Y10.118 E1.91944
G1 X14.562 Y15.684 E2.15502
G1 X15.31 Y15.684 E2.17740
G1 X8.99600000000001 Y9.37 E2.44464
G1 X9.37 Y8.99600000000001 E2.46047
G1 X15.684 Y15.31 E2.72770
G1 X15.684 Y14.562 E2.75008
G1 X10.118 Y8.99600000000001 E2.98566
G1 X10.866 Y8.99600000000001 E3.00805
G1 X15.684 Y13.814 E3.21197
G1 X15.684 Y13.066 E3.23435
G1 X11.614 Y8.99600000000001 E3.40663
G1 X12.362 Y8.99600000000001 E3.42901
G1 X15.684 Y12.318 E3.56963
G1 X15.684 Y11.571 E3.59201
G1 X13.109 Y8.99600000000001 E3.70098
G1 X13.857 Y8.99600000000001 E3.72336
G1 X15.684 Y10.823 E3.80067
G1 X15.684 Y10.075 E3.82305
G1 X14.605 Y8.99600000000001 E3.86871
G1 X15.353 Y8.99600000000001 E3.89109
G1 X15.684 Y9.327 E3.90509
G1 F1800.000 E2.90509
G92 E0
G1 Z1.600 F7800.000
G1 X8.64200000000001 Y8.64200000000001
G1 F1800.000 E1.00000
G1 X16.038 Y8.64200000000001 F600.000 E1.21750
G1 X16.038 Y16.038 E1.43499
G1 X8.64200000000001 Y16.038 E1.65249
G1 X8.64200000000001 Y8.72 E1.86769
G1 X8.64200000000001 Y8.64200000000001 E1.86998
G1 X8.122 Y8.122 F7800.000
G1 X16.558 Y8.122 F600.000 E2.11804
G1 X16.558 Y16.558 E2.36609
G1 X8.122 Y16.558 E2.61415
G1 X8.122 Y8.2 E2.85991
G1 X8.122 Y8.122 E2.86220
G1 X7.60300000000001 Y7.60300000000001 F7800.000
G1 X17.077 Y7.60300000000001 F600.000 E3.14082
G1 X17.077 Y17.077 E3.41943
G1 X7.60300000000001 Y17.077 E3.69805
G1 X7.60300000000001 Y7.68000000000001 E3.97437
G1 X7.60300000000001 Y7.60300000000001 E3.97666
G1 X8.053 Y7.86200000000001 F7800.000
G1 X9.327 Y8.99600000000001
G1 X8.99600000000001 Y9.327 F1198.119 E3.99067
G1 X8.99600000000001 Y10.075 E4.01305
G1 X10.075 Y8.99600000000001 E4.05871
G1 X10.823 Y8.99600000000001 E4.08109
G1 X8.99600000000001 Y10.823 E4.15840
G1 X8.99600000000001 Y11.571 E4.18078
G1 X11.571 Y8.99600000000001 E4.28975
G1 X12.318 Y8.99600000000001 E4.31213
G1 X8.99600000000001 Y12.318 E4.45275
G1 X8.99600000000001 Y13.066 E4.47513
G1 X13.066 Y8.99600000000001 E4.64740
G1 X13.814 Y8.99600000000001 E4.66978
G1 X8.99600000000001 Y13.814 E4.87371
G1 X8.99600000000001 Y14.562 E4.89609
G1 X14.562 Y8.99600000000001 E5.13167
G1 X15.31 Y8.99600000000001 E5.15405
G1 X8.99600000000001 Y15.31 E5.42128
G1 X9.37 Y15.684 E5.43711
G1 X15.684 Y9.37 E5.70434
G1 X15.684 Y10.118 E5.72672
G1 X10.118 Y15.684 E5.96231
G1 X10.866 Y15.684 E5.98469
G1 X15.684 Y10.866 E6.18861
G1 X15.684 Y11.614 E6.21099
G1 X11.614 Y15.684 E6.38327
G1 X12.362 Y15.684 E6.40565
G1 X15.684 Y12.362 E6.54627
G1 X15.684 Y13.109 E6.56865
G1 X13.109 Y15.684 E6.67762
G1 X13.857 Y15.684 E6.70000
G1 X15.684 Y13.857 E6.77731
G1 X15.684 Y14.605 E6.79969
G1 X14.605 Y15.684 E6.84535
G1 X15.353 Y15.684 E6.86773
G1 X15.684 Y15.353 E6.88173
G1 F1800.000 E5.88173
G92 E0
G1 Z2.000 F7800.000
G1 X8.64200000000001 Y16.038
G1 F1800.000 E1.00000
G1 X8.64200000000001 Y8.64200000000001 F600.000 E1.21750
G1 X16.038 Y8.64200000000001 E1.43499
G1 X16.038 Y16.038 E1.65249
G1 X8.72 Y16.038 E1.86769
G1 X8.64200000000001 Y16.038 E1.86998
G1 X8.122 Y16.558 F7800.000
G1 X8.122 Y8.122 F600.000 E2.11804
G1 X16.558 Y8.122 E2.36609
G1 X16.558 Y16.558 E2.61415
G1 X8.2 Y16.558 E2.85991
G1 X8.122 Y16.558 E2.86220
G1 X7.60300000000001 Y17.077 F7800.000
G1 X7.60300000000001 Y7.60300000000001 F600.000 E3.14082
G1 X17.077 Y7.60300000000001 E3.41943
G1 X17.077 Y17.077 E3.69805
G1 X7.68000000000001 Y17.077 E3.97437
G1 X7.60300000000001 Y17.077 E3.97666
G1 X7.86200000000001 Y16.627 F7800.000
G1 X9.327 Y15.684
G1 X8.99600000000001 Y15.353 F1198.119 E3.99067
G1 X8.99600000000001 Y14.605 E4.01305
G1 X10.075 Y15.684 E4.05871
G1 X10.823 Y15.684 E4.08109
G1 X8.99600000000001 Y13.857 E4.15840
G1 X8.99600000000001 Y13.109 E4.18078
G1 X11.571 Y15.684 E4.28975
G1 X12.318 Y15.684 E4.31213
G1 X8.99600000000001 Y12.362 E4.45275
G1 X8.99600000000001 Y11.614 E4.47513
G1 X13.066 Y15.684 E4.64740
G1 X13.814 Y15.684 E4.66979
G1 X8.99600000000001 Y10.866 E4.87371
G1 X8.99600000000001 Y10.118 E4.89609
G1 X14.562 Y15.684 E5.13167
G1 X15.31 Y15.684 E5.15406
G1 X8.99600000000001 Y9.37 E5.42129
G1 X9.37 Y8.99600000000001 E5.43711
G1 X15.684 Y15.31 E5.70435
G1 X15.684 Y14.562 E5.72673
G1 X10.118 Y8.99600000000001 E5.96231
G1 X10.866 Y8.99600000000001 E5.98469
G1 X15.684 Y13.814 E6.18862
G1 X15.684 Y13.066 E6.21100
G1 X11.614 Y8.99600000000001 E6.38327
G1 X12.362 Y8.99600000000001 E6.40565
G1 X15.684 Y12.318 E6.54627
G1 X15.684 Y11.571 E6.56865
G1 X13.109 Y8.99600000000001 E6.67762
G1 X13.857 Y8.99600000000001 E6.70000
G1 X15.684 Y10.823 E6.77731
G1 X15.684 Y10.075 E6.79969
G1 X14.605 Y8.99600000000001 E6.84535
G1 X15.353 Y8.99600000000001 E6.86773
G1 X15.684 Y9.327 E6.88173
G1 F1800.000 E5.88173
G92 E0
G1 Z2.400 F7800.000
G1 X8.64200000000001 Y16.038
G1 F1800.000 E1.00000
G1 X8.64200000000001 Y8.64200000000001 F600.000 E1.21750
G1 X16.038 Y8.64200000000001 E1.43499
G1 X16.038 Y16.038 E1.65249
G1 X8.72 Y16.038 E1.86769
G1 X8.64200000000001 Y16.038 E1.86998
G1 X8.122 Y16.558 F7800.000
G1 X8.122 Y8.122 F600.000 E2.11804
G1 X16.558 Y8.122 E2.36609
G1 X16.558 Y16.558 E2.61415
G1 X8.2 Y16.558 E2.85991
G1 X8.122 Y16.558 E2.86220
G1 X7.60300000000001 Y17.077 F7800.000
G1 X7.60300000000001 Y7.60300000000001 F600.000 E3.14082
G1 X17.077 Y7.60300000000001 E3.41943
G1 X17.077 Y17.077 E3.69805
G1 X7.68000000000001 Y17.077 E3.97437
G1 X7.60300000000001 Y17.077 E3.97666
G1 X7.86200000000001 Y16.627 F7800.000
G1 F1800.000 E2.97666
G92 E0
G1 X9.327 Y8.99600000000001 F7800.000
G1 F1800.000 E1.00000
G1 X8.99600000000001 Y9.327 F1198.119 E1.01400
G1 X8.99600000000001 Y10.075 E1.03638
G1 X10.075 Y8.99600000000001 E1.08204
G1 X10.823 Y8.99600000000001 E1.10442
G1 X8.99600000000001 Y10.823 E1.18173
G1 X8.99600000000001 Y11.571 E1.20412
G1 X11.571 Y8.99600000000001 E1.31308
G1 X12.318 Y8.99600000000001 E1.33546
G1 X8.99600000000001 Y12.318 E1.47608
G1 X8.99600000000001 Y13.066 E1.49846
G1 X13.066 Y8.99600000000001 E1.67074
G1 X13.814 Y8.99600000000001 E1.69312
G1 X8.99600000000001 Y13.814 E1.89704
G1 X8.99600000000001 Y14.562 E1.91942
G1 X14.562 Y8.99600000000001 E2.15500
G1 X15.31 Y8.99600000000001 E2.17739
G1 X8.99600000000001 Y15.31 E2.44462
G1 X9.37 Y15.684 E2.46045
G1 X15.684 Y9.37 E2.72768
G1 X15.684 Y10.118 E2.75006
G1 X10.118 Y15.684 E2.98564
G1 X10.866 Y15.684 E3.00802
G1 X15.684 Y10.866 E3.21195
G1 X15.684 Y11.614 E3.23433
G1 X11.614 Y15.684 E3.40660
G1 X12.362 Y15.684 E3.42899
G1 X15.684 Y12.362 E3.56960
G1 X15.684 Y13.109 E3.59199
G1 X13.109 Y15.684 E3.70095
G1 X13.857 Y15.684 E3.72333
G1 X15.684 Y13.857 E3.80064
G1 X15.684 Y14.605 E3.82303
G1 X14.605 Y15.684 E3.86868
G1 X15.353 Y15.684 E3.89107
G1 X15.684 Y15.353 E3.90507
G1 F1800.000 E2.90507
G92 E0
G1 Z2.800 F7800.000
G1 X16.038 Y8.64200000000001
G1 F1800.000 E1.00000
G1 X16.038 Y16.038 F600.000 E1.21750
G1 X8.64200000000001 Y16.038 E1.43499
G1 X8.64200000000001 Y8.64200000000001 E1.65249
G1 X15.96 Y8.64200000000001 E1.86769
G1 X16.038 Y8.64200000000001 E1.86998
G1 X16.558 Y8.122 F7800.000
G1 X16.558 Y16.558 F600.000 E2.11804
